!!!COM:	Bach, Johann Sebastian
!!!CDT:	1685/02/21/-1750/07/28/
!!!OTL@@DE:	Du Lebensfurst, Herr Jesu Christ
!!!SCT:	BWV 248/12
!!!PC#:	361
!!!AGN:	chorale
**kern	**kern	**kern	**kern
*ICvox	*ICvox	*ICvox	*ICvox
*Ibass	*Itenor	*Ialto	*Isoprn
*I"Bass	*I"Tenor	*I"Alto	*I"Soprano
*>[A,A,B]	*>[A,A,B]	*>[A,A,B]	*>[A,A,B]
*>norep[A,B]	*>norep[A,B]	*>norep[A,B]	*>norep[A,B]
*>A	*>A	*>A	*>A
*	*oclefC4	*oclefC3	*oclefC1
*clefF4	*clefGv2	*clefG2	*clefG2
*k[f#]	*k[f#]	*k[f#]	*k[f#]
*G:	*G:	*G:	*G:
*M4/4	*M4/4	*M4/4	*M4/4
*met(c)	*met(c)	*met(c)	*met(c)
*MM100	*MM100	*MM100	*MM100
8GL	4B	4d	4g
8F#J	.	.	.
=1	=1	=1	=1
4E	8BL	4e	4g
.	[8cJ	.	.
4D	8cL]	4f#	4a
.	8dJ	.	.
4G	8BL	8dL	8bL
.	8AJ	8eJ	8cc#J
8F#L	4A	4f#	4dd
8GJ	.	.	.
=2	=2	=2	=2
4A	4A	8eL	4dd
.	.	8f#J	.
4AA	4A	4g	4cc#
4D;	4A;	4f#;	4dd;
4D#	8BL	4f#	4b
.	8AJ	.	.
=3	=3	=3	=3
8EL	8GL	4e	4ccnX
8F#J	8AJ	.	.
8GL	8BL	8dL	4b
8CJ	8cJ	8eJ	.
8cL	4dnX	4f#	4a
8BJ	.	.	.
8AL	4d	4g	4b
8GJ	.	.	.
=4	=4	=4	=4
4d	4.d	4g	2a
4D	.	4f#	.
.	8c	.	.
4G;	4B;	4d;	4g;
=:|!	=:|!	=:|!	=:|!
*>B	*>B	*>B	*>B
4D	8dL	8f#L	4a
.	8eJ	8gJ	.
=5	=5	=5	=5
8dL	8f#L	4.a	4a
8cJ	8eJ	.	.
4B	4d	.	4b
.	.	8g#	.
4A	4e	8aL	4cc
.	.	8g#J	.
4D#	4f#	4a	4cc
=6	=6	=6	=6
4E	4B	4a	8bL
.	.	.	8aJ
4EE	8eL	4g#	4b
.	8dJ	.	.
4AA;	4c;	4e;	4a;
8EL	8GnXL	8eL	4b
8F#J	8AJ	8d#J	.
=7	=7	=7	=7
4G	8BL	4e	4b
.	8cJ	.	.
4G#	8dnXL	4e	4b
.	8eJ	.	.
4A	4c	8eL	8ccL
.	.	8f#J	8ddJ
4A#	4c#	8gnXL	4ee
.	.	8f#J	.
=8	=8	=8	=8
4B	4B	8f#L	4ee
.	.	8gJ	.
4BB	4B	4anX	4dd#
4E;	4B;	4g;	4ee;
8dnXL	4dnX	4a	4ff#
8cnXJ	.	.	.
=9	=9	=9	=9
8BL	4d	8gL	4gg
8AJ	.	8aJ	.
8GL	4g	4b	4b
8F#J	.	.	.
8EL	8GL	8bL	4cc
8F#J	8AJ	8aJ	.
8GL	4B	8aL	4b
8EJ	.	8gJ	.
=10	=10	=10	=10
8C#L	8eL	2g	2a
8BB	8d	.	.
8C#	8e	.	.
8AAJ	8c#J	.	.
4D;	4d;	4f#;	4a;
4BB	4d	8gL	4dd
.	.	8f#J	.
=11	=11	=11	=11
4CnX	8dL	4e	4ee
.	8cnXJ	.	.
4D	8cL	4f#	4dd
.	8BJ	.	.
8EL	8BL	8gL	4cc
8F#J	8AJ	8aJ	.
4G	4G	4d	8bL
.	.	.	8ccJ
=12	=12	=12	=12
4C	8GL	4e	2a
.	16F#L	.	.
.	16EJJ	.	.
4D	4F#	4d	.
4GG;	4B;	4d;	4g;
==	==	==	==
*-	*-	*-	*-
!!!YOR1: 371 vierstimmige Choralges&auml;nge von Johann Sebastian Bach, 
!!!YOR2: 4th ed. by Alfred D&ouml;rffel (Leipzig: Breitkopf und H&auml;rtel, 
!!!YOR2: c.1875). 178 pp. Plate "V.A.10".  reprint: J.S. Bach, 371 Four-Part 
!!!YOR4: Chorales (New York: Associated Music Publishers, Inc., c.1940).
!!!SMS: B&H, 4th ed, Alfred D&ouml;rffel, c.1875, plate V.A.10
!!!EED:  Craig Stuart Sapp
!!!EEV:  2009/05/22
